; G-Code generated by Simplify3D(R) Version 4.1.2
; Feb 16, 2022 at 1:30:53 PM
; Settings Summary
;   processName,Process1
;   applyToModels,CHEP_bed_level_print
;   profileName,Creality Ender 2 Pro (modified)
;   profileVersion,2022-02-16 13:05:22
;   baseProfile,Creality Ender 3
;   printMaterial,PLA
;   printQuality,Medium
;   printExtruders,
;   extruderName,Primary Extruder
;   extruderToolheadNumber,0
;   extruderDiameter,0.4
;   extruderAutoWidth,0
;   extruderWidth,0.4
;   extrusionMultiplier,0.9
;   extruderUseRetract,1
;   extruderRetractionDistance,4
;   extruderExtraRestartDistance,0
;   extruderRetractionZLift,0
;   extruderRetractionSpeed,2400
;   extruderUseCoasting,0
;   extruderCoastingDistance,0.2
;   extruderUseWipe,0
;   extruderWipeDistance,5
;   primaryExtruder,0
;   layerHeight,0.2
;   topSolidLayers,3
;   bottomSolidLayers,3
;   perimeterOutlines,2
;   printPerimetersInsideOut,1
;   startPointOption,2
;   startPointOriginX,0
;   startPointOriginY,0
;   sequentialIslands,0
;   spiralVaseMode,0
;   firstLayerHeightPercentage,120
;   firstLayerWidthPercentage,150
;   firstLayerUnderspeed,0.5
;   useRaft,0
;   raftExtruder,0
;   raftTopLayers,3
;   raftBaseLayers,2
;   raftOffset,3
;   raftSeparationDistance,0.14
;   raftTopInfill,100
;   aboveRaftSpeedMultiplier,0.3
;   useSkirt,0
;   skirtExtruder,0
;   skirtLayers,1
;   skirtOutlines,2
;   skirtOffset,4
;   usePrimePillar,0
;   primePillarExtruder,999
;   primePillarWidth,12
;   primePillarLocation,7
;   primePillarSpeedMultiplier,1
;   useOozeShield,0
;   oozeShieldExtruder,999
;   oozeShieldOffset,2
;   oozeShieldOutlines,1
;   oozeShieldSidewallShape,1
;   oozeShieldSidewallAngle,30
;   oozeShieldSpeedMultiplier,1
;   infillExtruder,0
;   internalInfillPattern,Rectilinear
;   externalInfillPattern,Rectilinear
;   infillPercentage,20
;   outlineOverlapPercentage,15
;   infillExtrusionWidthPercentage,100
;   minInfillLength,5
;   infillLayerInterval,1
;   internalInfillAngles,45,-45
;   overlapInternalInfillAngles,0
;   externalInfillAngles,45,-45
;   generateSupport,1
;   supportExtruder,0
;   supportInfillPercentage,30
;   supportExtraInflation,0
;   supportBaseLayers,0
;   denseSupportExtruder,0
;   denseSupportLayers,0
;   denseSupportInfillPercentage,70
;   supportLayerInterval,1
;   supportHorizontalPartOffset,0.3
;   supportUpperSeparationLayers,1
;   supportLowerSeparationLayers,1
;   supportType,0
;   supportGridSpacing,4
;   maxOverhangAngle,40
;   supportAngles,0
;   temperatureName,Primary Extruder,Heated Bed
;   temperatureNumber,0,0
;   temperatureSetpointCount,1,1
;   temperatureSetpointLayers,1,1
;   temperatureSetpointTemperatures,205,50
;   temperatureStabilizeAtStartup,1,1
;   temperatureHeatedBed,0,1
;   fanLayers,1,2
;   fanSpeeds,0,100
;   blipFanToFullPower,0
;   adjustSpeedForCooling,1
;   minSpeedLayerTime,15
;   minCoolingSpeedSlowdown,20
;   increaseFanForCooling,0
;   minFanLayerTime,45
;   maxCoolingFanSpeed,100
;   increaseFanForBridging,0
;   bridgingFanSpeed,100
;   use5D,1
;   relativeEdistances,0
;   allowEaxisZeroing,1
;   independentExtruderAxes,0
;   includeM10123,0
;   stickySupport,1
;   applyToolheadOffsets,0
;   gcodeXoffset,0
;   gcodeYoffset,0
;   gcodeZoffset,0
;   overrideMachineDefinition,1
;   machineTypeOverride,0
;   strokeXoverride,165
;   strokeYoverride,165
;   strokeZoverride,180
;   originOffsetXoverride,0
;   originOffsetYoverride,0
;   originOffsetZoverride,0
;   homeXdirOverride,-1
;   homeYdirOverride,-1
;   homeZdirOverride,-1
;   flipXoverride,1
;   flipYoverride,-1
;   flipZoverride,1
;   toolheadOffsets,0,0|0,0|0,0|0,0|0,0|0,0
;   overrideFirmwareConfiguration,1
;   firmwareTypeOverride,RepRap (Marlin/Repetier/Sprinter)
;   GPXconfigOverride,r2
;   baudRateOverride,115200
;   overridePrinterModels,1
;   printerModelsOverride
;   startingGcode,G28 ; home all axes,G1 X10 Y10 Z0.2 F3000 ; get ready to prime,G92 E0 ; reset extrusion distance,G1 X90 E15 F600 ; prime nozzle,G1 X100 F5000 ; quick wipe,,
;   layerChangeGcode,
;   retractionGcode,
;   toolChangeGcode,
;   endingGcode,G28 X0 ; home X axis,M106 S0 ; turn off cooling fan,M104 S0 ; turn off extruder,M140 S0 ; turn off bed,M84 ; disable motors
;   exportFileFormat,gcode
;   celebration,0
;   celebrationSong,Funky Town
;   postProcessing,
;   defaultSpeed,4800
;   outlineUnderspeed,0.5
;   solidInfillUnderspeed,0.8
;   supportUnderspeed,0.8
;   rapidXYspeed,4800
;   rapidZspeed,1002
;   minBridgingArea,50
;   bridgingExtraInflation,0
;   bridgingExtrusionMultiplier,1
;   bridgingSpeedMultiplier,1
;   useFixedBridgingAngle,0
;   fixedBridgingAngle,0
;   applyBridgingToPerimeters,0
;   filamentDiameters,1.75|1.75|1.75|1.75|1.75|1.75
;   filamentPricesPerKg,46|46|46|46|46|46
;   filamentDensities,1.25|1.25|1.25|1.25|1.25|1.25
;   useMinPrintHeight,0
;   minPrintHeight,0
;   useMaxPrintHeight,0
;   maxPrintHeight,0
;   useDiaphragm,0
;   diaphragmLayerInterval,20
;   robustSlicing,1
;   mergeAllIntoSolid,0
;   onlyRetractWhenCrossingOutline,1
;   retractBetweenLayers,1
;   useRetractionMinTravel,0
;   retractionMinTravel,3
;   retractWhileWiping,0
;   onlyWipeOutlines,1
;   avoidCrossingOutline,0
;   maxMovementDetourFactor,3
;   toolChangeRetractionDistance,12
;   toolChangeExtraRestartDistance,-0.5
;   toolChangeRetractionSpeed,600
;   externalThinWallType,1
;   internalThinWallType,1
;   thinWallAllowedOverlapPercentage,10
;   singleExtrusionMinLength,1
;   singleExtrusionMinPrintingWidthPercentage,50
;   singleExtrusionMaxPrintingWidthPercentage,200
;   singleExtrusionEndpointExtension,0.2
;   horizontalSizeCompensation,0
G90
M82
M106 S0
M140 S50
M190 S50
M104 S205 T0
M109 S205 T0
G28 ; home all axes
G1 X10 Y10 Z0.2 F3000 ; get ready to prime
G92 E0 ; reset extrusion distance
G1 X90 E15 F600 ; prime nozzle
G1 X100 F5000 ; quick wipe
; process Process1
; layer 1, Z = 0.240
T0
G92 E0.0000
G1 E-4.0000 F2400
; feature external single extrusion
; tool H0.240 W0.483
G1 Z0.240 F1002
G1 X13.999 Y14.069 F4800
G1 E0.0000 F2400
G92 E0.0000
; tool H0.240 W0.500
G1 X14.069 Y13.999 E0.0044 F1200
; tool H0.240 W0.483
G1 X14.149 Y13.982 E0.0080
; tool H0.240 W0.462
G1 X14.229 Y13.978 E0.0113
; tool H0.240 W0.458
G1 X150.771 Y13.978 E5.6314
; tool H0.240 W0.462
G1 X150.851 Y13.982 E5.6347
; tool H0.240 W0.483
G1 X150.931 Y13.999 E5.6383
; tool H0.240 W0.500
G1 X151.001 Y14.069 E5.6427
; tool H0.240 W0.483
G1 X151.018 Y14.149 E5.6463
; tool H0.240 W0.462
G1 X151.022 Y14.229 E5.6496
; tool H0.240 W0.458
G1 X151.022 Y150.691 E11.2671
; tool H0.240 W0.471
G1 X150.931 Y151.001 E11.2808
; tool H0.240 W0.483
G1 X150.851 Y151.018 E11.2843
; tool H0.240 W0.462
G1 X150.771 Y151.022 E11.2877
; tool H0.240 W0.458
G1 X14.229 Y151.022 E16.9083
; tool H0.240 W0.462
G1 X14.149 Y151.018 E16.9116
; tool H0.240 W0.483
G1 X14.069 Y151.001 E16.9151
; tool H0.240 W0.500
G1 X13.999 Y150.931 E16.9196
; tool H0.240 W0.483
G1 X13.981 Y150.851 E16.9231
; tool H0.240 W0.462
G1 X13.978 Y150.771 E16.9264
; tool H0.240 W0.458
G1 X13.978 Y14.229 E22.5464
; tool H0.240 W0.462
G1 X13.981 Y14.149 E22.5498
; tool H0.240 W0.483
G1 X13.999 Y14.069 E22.5533
G92 E0.0000
G1 E-4.0000 F2400
; tool H0.240 W0.483
G1 X23.166 Y23.235 F4800
G1 E0.0000 F2400
G92 E0.0000
; tool H0.240 W0.500
G1 X23.235 Y23.166 E0.0044 F1200
; tool H0.240 W0.483
G1 X23.315 Y23.148 E0.0080
; tool H0.240 W0.462
G1 X23.395 Y23.145 E0.0113
; tool H0.240 W0.458
G1 X141.605 Y23.145 E4.8768
; tool H0.240 W0.462
G1 X141.685 Y23.148 E4.8801
; tool H0.240 W0.483
G1 X141.765 Y23.166 E4.8837
; tool H0.240 W0.500
G1 X141.834 Y23.235 E4.8881
; tool H0.240 W0.483
G1 X141.852 Y23.315 E4.8917
; tool H0.240 W0.462
G1 X141.855 Y23.395 E4.8950
; tool H0.240 W0.458
G1 X141.855 Y141.525 E9.7565
; tool H0.240 W0.471
G1 X141.765 Y141.835 E9.7702
; tool H0.240 W0.483
G1 X141.685 Y141.852 E9.7737
; tool H0.240 W0.462
G1 X141.605 Y141.855 E9.7771
; tool H0.240 W0.458
G1 X23.395 Y141.855 E14.6429
; tool H0.240 W0.462
G1 X23.315 Y141.852 E14.6462
; tool H0.240 W0.483
G1 X23.235 Y141.834 E14.6497
; tool H0.240 W0.500
G1 X23.166 Y141.765 E14.6542
; tool H0.240 W0.483
G1 X23.148 Y141.685 E14.6577
; tool H0.240 W0.462
G1 X23.145 Y141.605 E14.6611
; tool H0.240 W0.458
G1 X23.145 Y23.395 E19.5267
; tool H0.240 W0.462
G1 X23.148 Y23.315 E19.5300
; tool H0.240 W0.483
G1 X23.166 Y23.235 E19.5335
G92 E0.0000
G1 E-4.0000 F2400
; tool H0.240 W0.483
G1 X32.332 Y32.402 F4800
G1 E0.0000 F2400
G92 E0.0000
; tool H0.240 W0.500
G1 X32.402 Y32.332 E0.0044 F1200
; tool H0.240 W0.483
G1 X32.482 Y32.315 E0.0080
; tool H0.240 W0.462
G1 X32.562 Y32.311 E0.0113
; tool H0.240 W0.458
G1 X132.438 Y32.311 E4.1222
; tool H0.240 W0.462
G1 X132.518 Y32.315 E4.1255
; tool H0.240 W0.483
G1 X132.598 Y32.332 E4.1291
; tool H0.240 W0.500
G1 X132.668 Y32.402 E4.1335
; tool H0.240 W0.483
G1 X132.685 Y32.482 E4.1370
; tool H0.240 W0.462
G1 X132.688 Y32.562 E4.1404
; tool H0.240 W0.458
G1 X132.688 Y132.358 E8.2480
; tool H0.240 W0.471
G1 X132.598 Y132.667 E8.2616
; tool H0.240 W0.483
G1 X132.518 Y132.685 E8.2651
; tool H0.240 W0.462
G1 X132.438 Y132.688 E8.2685
; tool H0.240 W0.458
G1 X32.562 Y132.688 E12.3799
; tool H0.240 W0.462
G1 X32.482 Y132.685 E12.3832
; tool H0.240 W0.483
G1 X32.402 Y132.667 E12.3868
; tool H0.240 W0.500
G1 X32.332 Y132.598 E12.3912
; tool H0.240 W0.483
G1 X32.315 Y132.518 E12.3947
; tool H0.240 W0.462
G1 X32.311 Y132.438 E12.3981
; tool H0.240 W0.458
G1 X32.311 Y32.562 E16.5088
; tool H0.240 W0.462
G1 X32.315 Y32.482 E16.5121
; tool H0.240 W0.483
G1 X32.332 Y32.402 E16.5156
G92 E0.0000
G1 E-4.0000 F2400
; tool H0.240 W0.483
G1 X41.499 Y41.569 F4800
G1 E0.0000 F2400
G92 E0.0000
; tool H0.240 W0.500
G1 X41.569 Y41.499 E0.0044 F1200
; tool H0.240 W0.483
G1 X41.649 Y41.482 E0.0080
; tool H0.240 W0.462
G1 X41.729 Y41.478 E0.0113
; tool H0.240 W0.458
G1 X123.271 Y41.478 E3.3676
; tool H0.240 W0.462
G1 X123.351 Y41.482 E3.3709
; tool H0.240 W0.483
G1 X123.431 Y41.499 E3.3744
; tool H0.240 W0.500
G1 X123.501 Y41.569 E3.3789
; tool H0.240 W0.483
G1 X123.518 Y41.649 E3.3824
; tool H0.240 W0.462
G1 X123.522 Y41.729 E3.3857
; tool H0.240 W0.458
G1 X123.522 Y123.191 E6.7387
; tool H0.240 W0.471
G1 X123.431 Y123.501 E6.7524
; tool H0.240 W0.483
G1 X123.351 Y123.518 E6.7559
; tool H0.240 W0.462
G1 X123.271 Y123.522 E6.7592
; tool H0.240 W0.458
G1 X41.729 Y123.522 E10.1155
; tool H0.240 W0.462
G1 X41.649 Y123.518 E10.1188
; tool H0.240 W0.483
G1 X41.569 Y123.501 E10.1224
; tool H0.240 W0.500
G1 X41.499 Y123.431 E10.1268
; tool H0.240 W0.483
G1 X41.482 Y123.351 E10.1304
; tool H0.240 W0.462
G1 X41.478 Y123.271 E10.1337
; tool H0.240 W0.458
G1 X41.478 Y41.729 E13.4902
; tool H0.240 W0.462
G1 X41.482 Y41.649 E13.4935
; tool H0.240 W0.483
G1 X41.499 Y41.569 E13.4971
G92 E0.0000
G1 E-4.0000 F2400
; tool H0.240 W0.483
G1 X50.666 Y50.736 F4800
G1 E0.0000 F2400
G92 E0.0000
; tool H0.240 W0.500
G1 X50.736 Y50.666 E0.0044 F1200
; tool H0.240 W0.483
G1 X50.816 Y50.649 E0.0080
; tool H0.240 W0.462
G1 X50.895 Y50.645 E0.0113
; tool H0.240 W0.458
G1 X114.104 Y50.645 E2.6131
; tool H0.240 W0.462
G1 X114.184 Y50.649 E2.6164
; tool H0.240 W0.483
G1 X114.264 Y50.666 E2.6199
; tool H0.240 W0.500
G1 X114.334 Y50.736 E2.6244
; tool H0.240 W0.483
G1 X114.351 Y50.816 E2.6279
; tool H0.240 W0.462
G1 X114.355 Y50.895 E2.6312
; tool H0.240 W0.458
G1 X114.355 Y114.025 E5.2295
; tool H0.240 W0.471
G1 X114.264 Y114.334 E5.2431
; tool H0.240 W0.483
G1 X114.184 Y114.351 E5.2466
; tool H0.240 W0.462
G1 X114.104 Y114.355 E5.2499
; tool H0.240 W0.458
G1 X50.895 Y114.355 E7.8518
; tool H0.240 W0.462
G1 X50.816 Y114.351 E7.8551
; tool H0.240 W0.483
G1 X50.736 Y114.334 E7.8587
; tool H0.240 W0.500
G1 X50.666 Y114.264 E7.8631
; tool H0.240 W0.483
G1 X50.649 Y114.184 E7.8666
; tool H0.240 W0.462
G1 X50.645 Y114.105 E7.8699
; tool H0.240 W0.458
G1 X50.645 Y50.895 E10.4715
; tool H0.240 W0.462
G1 X50.649 Y50.816 E10.4748
; tool H0.240 W0.483
G1 X50.666 Y50.736 E10.4783
G92 E0.0000
G1 E-4.0000 F2400
; tool H0.240 W0.483
G1 X59.833 Y59.903 F4800
G1 E0.0000 F2400
G92 E0.0000
; tool H0.240 W0.500
G1 X59.903 Y59.833 E0.0044 F1200
; tool H0.240 W0.483
G1 X59.983 Y59.816 E0.0080
; tool H0.240 W0.462
G1 X60.063 Y59.812 E0.0113
; tool H0.240 W0.458
G1 X104.937 Y59.812 E1.8582
; tool H0.240 W0.462
G1 X105.017 Y59.816 E1.8615
; tool H0.240 W0.483
G1 X105.097 Y59.833 E1.8651
; tool H0.240 W0.500
G1 X105.167 Y59.903 E1.8695
; tool H0.240 W0.483
G1 X105.184 Y59.983 E1.8731
; tool H0.240 W0.462
G1 X105.188 Y60.063 E1.8764
; tool H0.240 W0.458
G1 X105.188 Y104.857 E3.7201
; tool H0.240 W0.471
G1 X105.097 Y105.167 E3.7337
; tool H0.240 W0.483
G1 X105.017 Y105.184 E3.7373
; tool H0.240 W0.462
G1 X104.937 Y105.188 E3.7406
; tool H0.240 W0.458
G1 X60.063 Y105.188 E5.5874
; tool H0.240 W0.462
G1 X59.983 Y105.184 E5.5907
; tool H0.240 W0.483
G1 X59.903 Y105.167 E5.5942
; tool H0.240 W0.500
G1 X59.833 Y105.097 E5.5987
; tool H0.240 W0.483
G1 X59.816 Y105.017 E5.6022
; tool H0.240 W0.462
G1 X59.812 Y104.937 E5.6055
; tool H0.240 W0.458
G1 X59.812 Y60.063 E7.4525
; tool H0.240 W0.462
G1 X59.816 Y59.983 E7.4558
; tool H0.240 W0.483
G1 X59.833 Y59.903 E7.4594
G92 E0.0000
G1 E-4.0000 F2400
; tool H0.240 W0.483
G1 X69.000 Y69.070 F4800
G1 E0.0000 F2400
G92 E0.0000
; tool H0.240 W0.500
G1 X69.069 Y69.000 E0.0044 F1200
; tool H0.240 W0.483
G1 X69.149 Y68.983 E0.0080
; tool H0.240 W0.462
G1 X69.229 Y68.979 E0.0113
; tool H0.240 W0.458
G1 X95.771 Y68.979 E1.1037
; tool H0.240 W0.462
G1 X95.851 Y68.983 E1.1070
; tool H0.240 W0.483
G1 X95.931 Y69.000 E1.1105
; tool H0.240 W0.500
G1 X96.000 Y69.070 E1.1150
; tool H0.240 W0.483
G1 X96.017 Y69.149 E1.1185
; tool H0.240 W0.462
G1 X96.021 Y69.229 E1.1218
; tool H0.240 W0.458
G1 X96.021 Y95.691 E2.2111
; tool H0.240 W0.471
G1 X95.931 Y96.000 E2.2247
; tool H0.240 W0.483
G1 X95.851 Y96.017 E2.2283
; tool H0.240 W0.462
G1 X95.771 Y96.021 E2.2316
; tool H0.240 W0.458
G1 X69.229 Y96.021 E3.3241
; tool H0.240 W0.462
G1 X69.149 Y96.017 E3.3274
; tool H0.240 W0.483
G1 X69.069 Y96.000 E3.3309
; tool H0.240 W0.500
G1 X69.000 Y95.931 E3.3353
; tool H0.240 W0.483
G1 X68.983 Y95.851 E3.3389
; tool H0.240 W0.462
G1 X68.979 Y95.771 E3.3422
; tool H0.240 W0.458
G1 X68.979 Y69.229 E4.4347
; tool H0.240 W0.462
G1 X68.983 Y69.149 E4.4380
; tool H0.240 W0.483
G1 X69.000 Y69.070 E4.4416
G92 E0.0000
G1 E-4.0000 F2400
; layer end
G28 X0 ; home X axis
M106 S0 ; turn off cooling fan
M104 S0 ; turn off extruder
M140 S0 ; turn off bed
M84 ; disable motors
; Build Summary
;   Build time: 0 hours 1 minute
;   Filament length: 94.5 mm (0.09 m)
;   Plastic volume: 227.25 mm^3 (0.23 cc)
;   Plastic weight: 0.28 g (0.00 lb)
;   Material cost: 0.01
